X: 1401
T: The Dry Blower
C:Bob Rummery, Sorrento, WA
B: australian traditional tunes wiki
M:6/8
L:1/8
Q: 3/8=100
K:D
V:1 
|:A|"D"d2d fed|"G"BdB "D"A2d|f2f agf|"G"g2f "A"e2A|
"D"d2f fed|"G"BdB "D"A2d|f2f agf|"A"gec "D"d2:|
|:d|"A"e3 efg|"D"f2f fga|"G"b2b "D"a2f|agf"A"e3|
e3efg|"D"f2f fga|"G"bag "D"agf|"A"gfe"D"d2:|
% abcbook-tune_id 6342d53a4e3eaa416f180acd


% abcbook-boost 0
% abcbook-tablature 
% abcbook-transpose 
% abcbook-lastupdated 1665324363270
% abcbook-soundfonts 
% abcbook-repeats 1
% NFF Book 2008

